images/menu-split.svg

<svg xmlns="http://www.w3.org/2000/svg" viewBox="0 0 128 64" enable-background="new 0 0 128 64"><style type="text/css">.st0{fill:#C7CBD7;} .st1{fill:#83868E;}</style><path class="st0" d="M38.4 25.6v-13.6h-26.4v26.4h13.6v13.6h26.4v-26.4h-13.6zm-12 10h-11.7v-20.9h20.9v11.7l-1.2 1.2-6.8 6.8-1.2 1.2zm22.9 13.7h-20.9v-11.7l1.2-1.2 6.8-6.8 1.2-1.2h11.7v20.9zM25.8 20.5v-3h-8.3v8.4h2.9v-3.3l6.6 6.5 2.1-2.1-6.6-6.5zM34.9 37l6.6 6.5h-3.3v3h8.3v-8.4h-2.9v3.3l-6.6-6.5z"/><path class="st1" d="M102.4 25.6v-13.6h-26.4v26.4h13.6v13.6h26.4v-26.4h-13.6zm-12 10h-11.7v-20.9h20.9v11.7l-1.2 1.2-6.8 6.8-1.2 1.2zm22.9 13.7h-20.9v-11.7l1.2-1.2 6.8-6.8 1.2-1.2h11.7v20.9zM89.8 20.5v-3h-8.3v8.4h2.9v-3.3l6.6 6.5 2.1-2.1-6.6-6.5zM98.9 37l6.6 6.5h-3.3v3h8.3v-8.4h-2.9v3.3l-6.6-6.5z"/></svg>

<?xml version="1.0" encoding="utf-8"?>
<!-- Generator: Adobe Illustrator 21.0.1, SVG Export Plug-In . SVG Version: 6.00 Build 0)  -->
<svg version="1.1" id="Layer_1" xmlns="http://www.w3.org/2000/svg" xmlns:xlink="http://www.w3.org/1999/xlink" x="0px" y="0px"
	 viewBox="0 0 128 64" style="enable-background:new 0 0 128 64;" xml:space="preserve">
<style type="text/css">
	.st0{fill:#C7CBD7;}
	.st1{fill:#83868E;}
</style>
<g>
	<path class="st0" d="M38.4,25.6V12H12v26.4h13.6V52H52V25.6H38.4z M26.4,35.6H14.7V14.7h20.9v11.7l-1.2,1.2l-6.8,6.8L26.4,35.6z
		 M49.3,49.3H28.4V37.6l1.2-1.2l6.8-6.8l1.2-1.2h11.7V49.3z"/>
	<polygon class="st0" points="25.8,20.5 25.8,17.5 17.5,17.5 17.5,25.9 20.4,25.9 20.4,22.6 27,29.1 29.1,27 22.5,20.5 	"/>
	<polygon class="st0" points="34.9,37 41.5,43.5 38.2,43.5 38.2,46.5 46.5,46.5 46.5,38.1 43.6,38.1 43.6,41.4 37,34.9 	"/>
</g>
<g>
	<path class="st1" d="M102.4,25.6V12H76v26.4h13.6V52H116V25.6H102.4z M90.4,35.6H78.7V14.7h20.9v11.7l-1.2,1.2l-6.8,6.8L90.4,35.6z
		 M113.3,49.3H92.4V37.6l1.2-1.2l6.8-6.8l1.2-1.2h11.7V49.3z"/>
	<polygon class="st1" points="89.8,20.5 89.8,17.5 81.5,17.5 81.5,25.9 84.4,25.9 84.4,22.6 91,29.1 93.1,27 86.5,20.5 	"/>
	<polygon class="st1" points="98.9,37 105.5,43.5 102.2,43.5 102.2,46.5 110.5,46.5 110.5,38.1 107.6,38.1 107.6,41.4 101,34.9 	"/>
</g>
</svg>
